X:10
T:Thompson's Dirk
R:reel
C:Howie MacDonald
D:Howie, Dave  & Mac
Z:Paul Stewart Cranford (P.S.C.), <http://www.cranfordpub.com>
L:1/8
M:C|
Q:333
K:Amix
d|cA (c/d/e) c2 Ac|BG (B/c/d) B2 GB|cA (c/d/e) c2 Ac|BGdB AAA:|
^g|aece aeef|g2 dg Bgdg|aece aeed|cABG AAA^g|
aece aeef|g2 dg Bgdg|aeb^g aefd|cABG AAA|]
